icons/svg/shields/h_tower_shield.svg

<?xml version="1.0" encoding="UTF-8" standalone="no"?>
<!-- Created with Inkscape (http://www.inkscape.org/) -->

<svg
   xmlns:dc="http://purl.org/dc/elements/1.1/"
   xmlns:cc="http://creativecommons.org/ns#"
   xmlns:rdf="http://www.w3.org/1999/02/22-rdf-syntax-ns#"
   xmlns:svg="http://www.w3.org/2000/svg"
   xmlns="http://www.w3.org/2000/svg"
   xmlns:sodipodi="http://sodipodi.sourceforge.net/DTD/sodipodi-0.dtd"
   xmlns:inkscape="http://www.inkscape.org/namespaces/inkscape"
   version="1.0"
   width="16"
   height="16"
   id="svg2"
   sodipodi:version="0.32"
   inkscape:version="0.48.4 r9939"
   sodipodi:docname="h_water_tower_shield.svg"
   inkscape:output_extension="org.inkscape.output.svg.inkscape">
  <metadata
     id="metadata10">
    <rdf:RDF>
      <cc:Work
         rdf:about="">
        <dc:format>image/svg+xml</dc:format>
        <dc:type
           rdf:resource="http://purl.org/dc/dcmitype/StillImage" />
        <cc:license
           rdf:resource="http://web.resource.org/cc/PublicDomain" />
        <dc:language>en</dc:language>
        <dc:title></dc:title>
      </cc:Work>
    </rdf:RDF>
  </metadata>
  <sodipodi:namedview
     inkscape:window-height="1004"
     inkscape:window-width="1920"
     inkscape:pageshadow="2"
     inkscape:pageopacity="0.0"
     guidetolerance="10.0"
     gridtolerance="10.0"
     objecttolerance="10.0"
     borderopacity="1.0"
     bordercolor="#666666"
     pagecolor="#ffffff"
     id="base"
     showgrid="false"
     inkscape:zoom="32"
     inkscape:cx="7.25324"
     inkscape:cy="10.11143"
     inkscape:window-x="1680"
     inkscape:window-y="0"
     inkscape:current-layer="svg2"
     inkscape:window-maximized="1" />
  <defs
     id="defs4">
    <inkscape:perspective
       sodipodi:type="inkscape:persp3d"
       inkscape:vp_x="0 : 290 : 1"
       inkscape:vp_y="0 : 1000 : 0"
       inkscape:vp_z="580 : 290 : 1"
       inkscape:persp3d-origin="290 : 193.33333 : 1"
       id="perspective12" />
    <style
       type="text/css"
       id="style6">
   
    .fil0 {fill:#EF7900}
   
  </style>
    <inkscape:perspective
       id="perspective6807"
       inkscape:persp3d-origin="29.116032 : 19.410688 : 1"
       inkscape:vp_z="58.232063 : 29.116032 : 1"
       inkscape:vp_y="0 : 1000 : 0"
       inkscape:vp_x="0 : 29.116032 : 1"
       sodipodi:type="inkscape:persp3d" />
    <inkscape:perspective
       id="perspective6954"
       inkscape:persp3d-origin="290 : 193.33333 : 1"
       inkscape:vp_z="580 : 290 : 1"
       inkscape:vp_y="0 : 1000 : 0"
       inkscape:vp_x="0 : 290 : 1"
       sodipodi:type="inkscape:persp3d" />
    <inkscape:perspective
       id="perspective2541"
       inkscape:persp3d-origin="240 : 160 : 1"
       inkscape:vp_z="480 : 240 : 1"
       inkscape:vp_y="0 : 1000 : 0"
       inkscape:vp_x="0 : 240 : 1"
       sodipodi:type="inkscape:persp3d" />
    <inkscape:perspective
       id="perspective2750"
       inkscape:persp3d-origin="215 : 143.33333 : 1"
       inkscape:vp_z="430 : 215 : 1"
       inkscape:vp_y="0 : 1000 : 0"
       inkscape:vp_x="0 : 215 : 1"
       sodipodi:type="inkscape:persp3d" />
    <inkscape:perspective
       id="perspective3730"
       inkscape:persp3d-origin="88.929146 : 101.19778 : 1"
       inkscape:vp_z="177.85829 : 151.79668 : 1"
       inkscape:vp_y="0 : 1000 : 0"
       inkscape:vp_x="0 : 151.79668 : 1"
       sodipodi:type="inkscape:persp3d" />
  </defs>
  <path
     sodipodi:type="inkscape:offset"
     inkscape:radius="1.0643367"
     inkscape:original="M 5.40625 1.40625 L 5.40625 5.03125 L 6.5 5.03125 L 4.5625 14.6875 L 11.4375 14.6875 L 9.5 5.03125 L 10.5625 5.03125 L 10.5625 1.40625 L 9.6875 1.40625 L 9.6875 2.5 L 8.71875 2.5 L 8.71875 1.40625 L 7.25 1.40625 L 7.25 2.5 L 6.25 2.5 L 6.25 1.40625 L 5.40625 1.40625 z M 7.4375 5.09375 L 8.59375 5.09375 L 8.78125 6.15625 L 7.28125 6.15625 L 7.4375 5.09375 z M 7.0625 7.28125 L 8.96875 7.28125 L 9.21875 8.5 L 6.8125 8.5 L 7.0625 7.28125 z M 6.5625 9.75 L 9.46875 9.75 L 9.6875 10.96875 L 6.3125 10.96875 L 6.5625 9.75 z M 6.0625 12.21875 L 9.9375 12.21875 L 10.1875 13.4375 L 5.8125 13.4375 L 6.0625 12.21875 z "
     style="fill:#f1eacf;fill-opacity:0.94117647000000004;stroke:none;opacity:0.71268657"
     id="path3793"
     d="m 5.3125,0.34375 a 1.0644431,1.0644431 0 0 0 -0.96875,1.0625 l 0,3.625 a 1.0644431,1.0644431 0 0 0 0.875,1.0625 l -1.6875,8.375 A 1.0644431,1.0644431 0 0 0 4.5625,15.75 l 6.875,0 a 1.0644431,1.0644431 0 0 0 1.03125,-1.28125 L 10.78125,6.0625 A 1.0644431,1.0644431 0 0 0 11.625,5.03125 l 0,-3.625 a 1.0644431,1.0644431 0 0 0 -1.0625,-1.0625 l -0.875,0 a 1.0644431,1.0644431 0 0 0 -0.5,0.125 1.0644431,1.0644431 0 0 0 -0.46875,-0.125 l -1.46875,0 a 1.0644431,1.0644431 0 0 0 -0.5,0.125 1.0644431,1.0644431 0 0 0 -0.03125,0 A 1.0644431,1.0644431 0 0 0 6.25,0.34375 l -0.84375,0 a 1.0644431,1.0644431 0 0 0 -0.09375,0 z" />
</svg>

<?xml version="1.0" encoding="UTF-8" standalone="no"?>
<!-- Created with Inkscape (http://www.inkscape.org/) -->

<svg
   xmlns:dc="http://purl.org/dc/elements/1.1/"
   xmlns:cc="http://creativecommons.org/ns#"
   xmlns:rdf="http://www.w3.org/1999/02/22-rdf-syntax-ns#"
   xmlns:svg="http://www.w3.org/2000/svg"
   xmlns="http://www.w3.org/2000/svg"
   xmlns:sodipodi="http://sodipodi.sourceforge.net/DTD/sodipodi-0.dtd"
   xmlns:inkscape="http://www.inkscape.org/namespaces/inkscape"
   version="1.0"
   width="16"
   height="16"
   id="svg2"
   sodipodi:version="0.32"
   inkscape:version="0.91 r13725"
   sodipodi:docname="h_tower_shield.svg"
   inkscape:output_extension="org.inkscape.output.svg.inkscape">
  <metadata
     id="metadata10">
    <rdf:RDF>
      <cc:Work
         rdf:about="">
        <dc:format>image/svg+xml</dc:format>
        <dc:type
           rdf:resource="http://purl.org/dc/dcmitype/StillImage" />
        <cc:license
           rdf:resource="http://web.resource.org/cc/PublicDomain" />
        <dc:language>en</dc:language>
        <dc:title />
      </cc:Work>
    </rdf:RDF>
  </metadata>
  <sodipodi:namedview
     inkscape:window-height="1006"
     inkscape:window-width="1920"
     inkscape:pageshadow="2"
     inkscape:pageopacity="0.0"
     guidetolerance="10.0"
     gridtolerance="10.0"
     objecttolerance="10.0"
     borderopacity="1.0"
     bordercolor="#666666"
     pagecolor="#ffffff"
     id="base"
     showgrid="false"
     inkscape:zoom="32"
     inkscape:cx="6.31574"
     inkscape:cy="9.14268"
     inkscape:window-x="1920"
     inkscape:window-y="0"
     inkscape:current-layer="svg2"
     inkscape:window-maximized="1" />
  <defs
     id="defs4">
    <inkscape:perspective
       sodipodi:type="inkscape:persp3d"
       inkscape:vp_x="0 : 290 : 1"
       inkscape:vp_y="0 : 1000 : 0"
       inkscape:vp_z="580 : 290 : 1"
       inkscape:persp3d-origin="290 : 193.33333 : 1"
       id="perspective12" />
    <style
       type="text/css"
       id="style6">
   
    .fil0 {fill:#EF7900}
   
  </style>
    <inkscape:perspective
       id="perspective6807"
       inkscape:persp3d-origin="29.116032 : 19.410688 : 1"
       inkscape:vp_z="58.232063 : 29.116032 : 1"
       inkscape:vp_y="0 : 1000 : 0"
       inkscape:vp_x="0 : 29.116032 : 1"
       sodipodi:type="inkscape:persp3d" />
    <inkscape:perspective
       id="perspective6954"
       inkscape:persp3d-origin="290 : 193.33333 : 1"
       inkscape:vp_z="580 : 290 : 1"
       inkscape:vp_y="0 : 1000 : 0"
       inkscape:vp_x="0 : 290 : 1"
       sodipodi:type="inkscape:persp3d" />
    <inkscape:perspective
       id="perspective2541"
       inkscape:persp3d-origin="240 : 160 : 1"
       inkscape:vp_z="480 : 240 : 1"
       inkscape:vp_y="0 : 1000 : 0"
       inkscape:vp_x="0 : 240 : 1"
       sodipodi:type="inkscape:persp3d" />
    <inkscape:perspective
       id="perspective2750"
       inkscape:persp3d-origin="215 : 143.33333 : 1"
       inkscape:vp_z="430 : 215 : 1"
       inkscape:vp_y="0 : 1000 : 0"
       inkscape:vp_x="0 : 215 : 1"
       sodipodi:type="inkscape:persp3d" />
    <inkscape:perspective
       id="perspective3730"
       inkscape:persp3d-origin="88.929146 : 101.19778 : 1"
       inkscape:vp_z="177.85829 : 151.79668 : 1"
       inkscape:vp_y="0 : 1000 : 0"
       inkscape:vp_x="0 : 151.79668 : 1"
       sodipodi:type="inkscape:persp3d" />
  </defs>
  <path
     sodipodi:type="inkscape:offset"
     inkscape:radius="1.0643367"
     inkscape:original="M 5.40625 1.40625 L 5.40625 5.03125 L 6.5 5.03125 L 4.5625 14.6875 L 11.4375 14.6875 L 9.5 5.03125 L 10.5625 5.03125 L 10.5625 1.40625 L 9.6875 1.40625 L 9.6875 2.5 L 8.71875 2.5 L 8.71875 1.40625 L 7.25 1.40625 L 7.25 2.5 L 6.25 2.5 L 6.25 1.40625 L 5.40625 1.40625 z M 7.4375 5.09375 L 8.59375 5.09375 L 8.78125 6.15625 L 7.28125 6.15625 L 7.4375 5.09375 z M 7.0625 7.28125 L 8.96875 7.28125 L 9.21875 8.5 L 6.8125 8.5 L 7.0625 7.28125 z M 6.5625 9.75 L 9.46875 9.75 L 9.6875 10.96875 L 6.3125 10.96875 L 6.5625 9.75 z M 6.0625 12.21875 L 9.9375 12.21875 L 10.1875 13.4375 L 5.8125 13.4375 L 6.0625 12.21875 z "
     style="opacity:0.811;fill:#ebe7e4;fill-opacity:1;stroke:none"
     id="path3793"
     d="M 5.40625,0.34179688 A 1.0644431,1.0644431 0 0 0 4.3417969,1.40625 l 0,3.625 A 1.0644431,1.0644431 0 0 0 5.2050781,6.0761719 L 3.5195312,14.478516 A 1.0644431,1.0644431 0 0 0 4.5625,15.751953 l 6.875,0 a 1.0644431,1.0644431 0 0 0 1.042969,-1.273437 l -1.6875,-8.4082035 A 1.0644431,1.0644431 0 0 0 11.626953,5.03125 l 0,-3.625 A 1.0644431,1.0644431 0 0 0 10.5625,0.34179688 l -0.875,0 A 1.0644431,1.0644431 0 0 0 9.2050781,0.45898438 1.0644431,1.0644431 0 0 0 8.71875,0.34179688 l -1.46875,0 a 1.0644431,1.0644431 0 0 0 -0.5,0.125 1.0644431,1.0644431 0 0 0 -0.5,-0.125 l -0.84375,0 z"
     transform="matrix(0.857,0,0,0.857,1.144,1.1507031)" />
</svg>
